X: 1101
T: The Dairy Maid
R:double jig
N:"" "2nd Setting" "collected by F.O'Neill"
B:O'Neill's 1101
Z:Transcribed by henrik.norbeck@mailbox.swipnet.se
M:6/8
L:1/8
K:G
(A/G/)|FDD FEF|DGG G2A|BAB GBd|cAG F2A|
BAB Bcd|cBc ABc|(d/e/f)d cAF|AGG G2:|
d|gfe fdc|BGG G2g|fef (d/e/f)d|cAG F2c|
BAB Bcd|cBc ABc|(d/e/f)d cAF|AGG G2:|


